X:31
T: De klenge Meenchen, S.53
N: R0055
O: Luxemburg, Echternach
S: D'Fraen um Kanddaaf an der aler Zeit, Luxemburg 1929]
R: ??, Liebeslied?]
M: 3/4
L: 1/8
K: D
D2 | AAAAAA | F4D2 | A4B2 | A2z2
D2 | A2AAAA | F4D2 | A4B2 | A2z2
A2 | d2d2d2 | B2G2G2
B2BcdB | A2F2F2 | G2E2A2 | D2z2

